X: 55
T:Country Dance. TBe.055
M:2/2
L:1/4
Q:110
S:Thomas Bennet MS,1718, VWML
R:!
O:England
H:1718
Z:C. Graeb
K:F major
cff(e/d/) | (e/f/)gg2 | a ""ffc | ""A2F2 ||!
fc""A2 | (A/B/)cG2 | ""AFFG | ""A2c2 ||
